X:1
T:Waiting and Watching for Me
T:Waiting and Watching for Me
T:Philip Paul Bliss (1838-1876)
T:Marianne Hearn, 1862
T:Public Domain Courtesy of the Cyber Hymnal™
T:Public Domain Courtesy of the Cyber Hymnal™
C:Philip Paul Bliss (1838-1876)
Z:Public Domain
Z:Courtesy of the Cyber Hymnal™
%%score ( 1 2 ) ( 3 4 )
L:1/8
Q:1/4=83
M:6/8
K:D
V:1 treble 
V:2 treble 
V:3 bass 
V:4 bass 
V:1
 [DF]/"^Duet, Slowly"[EG]/ | [FA][FA][FA] [GB][FA][FA] | [FA][^E^G][FA] [DF]2 [FA] | %3
w: 1.~When my|fi- nal fare- well to the|world I have said, And|
w: 2.~There are|lit- tle ones glanc- ing a-|bout in my path, In|
w: 3.~There are|old and for- sak- en who|lin- ger a- while In|
w: 4.~Oh, should|I be brought there by the|boun- ti- ful grace Of|
 [GB][G^A][GB] [Bd][Ac][GB] | [FA]3- [FA]2 ([FA]/[FA]/) | [FA][FA][FA] [GB][FA][FA] | %6
w: glad- ly lie down to my|rest; * When *|soft- ly the watch- ers shall|
w: want of a friend and a|guide; * There~are *|dear lit- tle eyes look- ing|
w: homes which their dear- est have|left; * And~a *|few gen- tle words or an|
w: Him who de- lights to for-|give, * Though~I *|bless not the wear- y a-|
 [FA][^E^G][FA] [DF]2 [DF] | [DF][DE][DE] [DE][DF][D^G] | [CA]3- [CA]2 ([FA]/[FA]/) | %9
w: say, “He is dead,” And|fold my pale hands o’er my|breast; * And *|
w: up in- to mine, Whose|tears might be eas- i- ly|dried. * But *|
w: ac- tion of love May|cheer their sad spir- its be-|reft. * But~the *|
w: bout in my path, Pray|on- ly for self while I|live, * Me- *|
 [FA][EG][EG] [EG][EG][EG] | [EG][DF][DF] [DF]2 ([DF]/[DF]/) | [CE][DF][EG] [GB][GA][GA] | %12
w: when, with my glor- i- fied|vi- sion at last The *|walls of “That Ci- ty” I|
w: Je- sus may beck- on the|child- ren a- way In~the *|midst of their grief and their|
w: Reap- er is near to the|long stand- ing corn, The *|wea- ry will soon be set|
w: thinks I should mourn o’er my|sin- ful ne- glect, If *|sor- row in Heav- en can|
 ([FA]3 [DF]2) [FA] | [Fd][Fd][Fd] [Ec][Ec][Ec] | [DB][DB][DB] [FA]2 [FA] | %15
w: see, * Will|an- y one then at the|beau- ti- ful gate, Be|
w: glee— * Will|an- y of them, at the|beau- ti- ful gate, Be|
w: free— * Will|an- y of them, at the|beau- ti- ful gate, Be|
w: be, * Should|no one I love, at the|beau- ti- ful gate, Be|
 [FA][EG][EG] [EG][DF][CE] | ([DF]3 [FA]2) [FA] | [Fd][Fd][Fd] [Ec][Ec][Ec] | %18
w: wai- ting and watch- ing for|me? * Will|an- y one then at the|
w: wait- ing and watch- ing for|me? * Will|an- y of them, at the|
w: wait- ing and watch- ing for|me? * Will|an- y of them, at the|
w: wait- ing and watch- ing for|me! * Should|no one I love, at the|
 [DB][DB][DB] [FA]2 [FA] | [GA][GA][GA] [Gc][GB][GA] | [Fd]3- [Fd]2 |:"^Refrain" A | %22
w: beau- ti- ful gate, Be|wai- ting and watch- ing for|me? *||
w: beau- ti- ful gate, Be|wait- ing and watch- ing for|me? *|Be|
w: beau- ti- ful gate, Be|wait- ing and watch- ing for|me? *||
w: beau- ti- ful gate, Be|wait- ing and watch- ing for|me! *||
 A (z F z) A x | B z G G[GB] x | [FA][FA][FA] [Gc][GB]!fermata![GA] | %25
w: |||
w: wait- * ing|* * and watch-|* ing, Be wait- ing and|
w: |||
w: |||
 [Fd]3- [Fd]2"^Play 2 times" :| %26
w: |
w: watch- *|
w: |
w: |
V:2
 x | x6 | x6 | x6 | x6 | x6 | x6 | x6 | x6 | x6 | x6 | x6 | x6 | x6 | x6 | x6 | x6 | x6 | x6 | x6 | %20
 x5 |: x | x A2 F F2 | x B2 G x2 | x6 | x5 :| %26
V:3
 D,/D,/ | D,D,D, D,D,D, | D,D,D, D,2 D, | G,G,G, G,G,G, | D,3- D,2 (D,/D,/) | D,D,D, D,D,D, | %6
w: ~ ~|~ ~ ~ ~ ~ ~|~ ~ ~ ~ ~|~ ~ ~ ~ ~ ~|~ * ~ *|~ ~ ~ ~ ~ ~|
 D,D,D, D,2 D, | E,E,E, E,E,E, | A,,3- A,,2 (C,/C,/) | A,,A,,A,, A,,A,,A,, | %10
w: ~ ~ ~ ~ ~|~ ~ ~ ~ ~ ~|~ * ~ *|~ ~ ~ ~ ~ ~|
 A,,A,,A,, A,,2 (A,,/A,,/) | A,,A,,A,, A,,A,,A,, | (D,3- D,2) D, | B,,B,,B,, F,F,F, | %14
w: ~ ~ ~ ~ ~ *|~ ~ ~ ~ ~ ~|~ * ~|~ ~ ~ ~ ~ ~|
 G,G,G, D,2 D, | A,,A,,A,, A,,A,,A,, | (D,3- D,2) D, | B,,B,,B,, F,F,F, | G,G,G, D,2 D, | %19
w: ~ ~ ~ ~ ~|~ ~ ~ ~ ~ ~|~ * ~|~ ~ ~ ~ ~ ~|~ ~ ~ ~ ~|
 A,,A,,A,, A,,A,,A,, | D,3- D,2 |: z | z2 [D,D] [D,D] [D,D]2 | z2 [G,B,] [G,B,][G,B,][G,D] | %24
w: ~ ~ ~ ~ ~ ~|~ *||Be wait- ing|and watch- ing, *|
 [A,D][A,D][A,D] A,A,!fermata!A, | [D,A,]3- [D,A,]2"^Play 2 times" :| %26
w: ||
V:4
 x | x6 | x6 | x6 | x6 | x6 | x6 | x6 | x6 | x6 | x6 | x6 | x6 | x6 | x6 | x6 | x6 | x6 | x6 | x6 | %20
 x5 |: x | x6 | x6 | x3 A,A,A, | x5 :| %26

